src/components/icon/assets/logo_google_g.svg

<svg xmlns="http://www.w3.org/2000/svg" xmlns:xlink="http://www.w3.org/1999/xlink" width="32" height="32" viewBox="0 0 32 32">
  <defs>
    <path id="logo_google_g_oh1-a" d="M15.3189468,3.27798319 C15.3189468,2.14659944 15.217479,1.05859944 15.0287955,0.0142521008 L0.000985994398,0.0142521008 L0.000985994398,6.18639776 L8.58836975,6.18639776 C8.21844258,8.18088515 7.09422969,9.87087955 5.40441457,11.0022633 L5.40441457,15.0058487 L10.5610756,15.0058487 C13.5783081,12.227944 15.3189468,8.13741176 15.3189468,3.27798319 L15.3189468,3.27798319 Z"/>
    <path id="logo_google_g_oh1-c" d="M14.3427227,12.9556078 C18.6508908,12.9556078 22.2628571,11.5268123 24.9028123,9.08988235 L19.7461513,5.08629692 C18.3172661,6.04369748 16.489591,6.60938936 14.3427227,6.60938936 C10.1868459,6.60938936 6.66917647,3.80253221 5.41454342,0.0310140056 L0.083719888,0.0310140056 L0.083719888,4.16519888 C2.7092437,9.38003361 8.10523249,12.9556078 14.3427227,12.9556078 L14.3427227,12.9556078 Z"/>
    <path id="logo_google_g_oh1-e" d="M7.0279888,10.2495014 C6.70879552,9.29219048 6.52746218,8.26953501 6.52746218,7.21783754 C6.52746218,6.16622969 6.70879552,5.14357423 7.0279888,4.18617367 L7.0279888,0.0521680672 L1.69716527,0.0521680672 C0.616515406,2.20620728 0,4.64313725 0,7.21783754 C0,9.79262745 0.616515406,12.2296471 1.69716527,14.3836863 L7.0279888,10.2495014 L7.0279888,10.2495014 Z"/>
    <path id="logo_google_g_oh1-g" d="M14.3427227,6.39220168 C16.6853557,6.39220168 18.7887507,7.19731092 20.4423529,8.77839776 L25.0188908,4.20185994 C22.255507,1.62715966 18.6436303,0.0459831933 14.3427227,0.0459831933 C8.10523249,0.0459831933 2.7092437,3.62164706 0.083719888,8.83648179 L5.41454342,12.9704874 C6.66917647,9.19905882 10.1868459,6.39220168 14.3427227,6.39220168 L14.3427227,6.39220168 Z"/>
  </defs>
  <g fill="none" fill-rule="evenodd">
    <g transform="translate(15.955 13.087)">
      <mask id="logo_google_g_oh1-b" fill="#fff">
        <use xlink:href="#logo_google_g_oh1-a"/>
      </mask>
      <polygon fill="#4285F4" fill-rule="nonzero" points=".001 15.006 15.319 15.006 15.319 .014 .001 .014" mask="url(#logo_google_g_oh1-b)"/>
    </g>
    <g transform="translate(1.613 19.003)">
      <mask id="logo_google_g_oh1-d" fill="#fff">
        <use xlink:href="#logo_google_g_oh1-c"/>
      </mask>
      <polygon fill="#34A853" fill-rule="nonzero" points=".084 12.956 24.903 12.956 24.903 .031 .084 .031" mask="url(#logo_google_g_oh1-d)"/>
    </g>
    <g transform="translate(0 8.784)">
      <mask id="logo_google_g_oh1-f" fill="#fff">
        <use xlink:href="#logo_google_g_oh1-e"/>
      </mask>
      <polygon fill="#FBBC04" fill-rule="nonzero" points="0 14.384 7.028 14.384 7.028 .052 0 .052" mask="url(#logo_google_g_oh1-f)"/>
    </g>
    <g transform="translate(1.613)">
      <mask id="logo_google_g_oh1-h" fill="#fff">
        <use xlink:href="#logo_google_g_oh1-g"/>
      </mask>
      <polygon fill="#EA4335" fill-rule="nonzero" points=".084 12.97 25.019 12.97 25.019 .046 .084 .046" mask="url(#logo_google_g_oh1-h)"/>
    </g>
  </g>
</svg>

<svg xmlns="http://www.w3.org/2000/svg" xmlns:xlink="http://www.w3.org/1999/xlink" viewBox="0 0 32 32" width="32" height="32"><defs><path id="a" d="M15.319 3.278c0-1.131-.102-2.22-.29-3.264H0v6.172h8.587c-.37 1.995-1.494 3.685-3.184 4.816v4.004h5.157c3.017-2.778 4.758-6.869 4.758-11.728z"/><path id="c" d="M14.343 12.956c4.308 0 7.92-1.43 10.56-3.866l-5.157-4.004c-1.429.958-3.256 1.523-5.403 1.523-4.156 0-7.674-2.806-8.928-6.578H.084v4.134c2.625 5.215 8.021 8.79 14.259 8.79z"/><path id="e" d="M7.028 10.25a9.59 9.59 0 01-.5-3.032 9.59 9.59 0 01.5-3.032V.052h-5.33A15.95 15.95 0 000 7.218c0 2.575.617 5.012 1.697 7.166l5.331-4.134z"/><path id="g" d="M14.343 6.392c2.342 0 4.446.805 6.1 2.386l4.576-4.576C22.256 1.627 18.644.046 14.343.046 8.105.046 2.709 3.622.083 8.836l5.332 4.134c1.254-3.77 4.772-6.578 8.928-6.578z"/></defs><g fill="none" fill-rule="evenodd"><g transform="translate(15.955 13.087)"><mask id="b" fill="#fff"><use xlink:href="#a"/></mask><path fill="#4285F4" fill-rule="nonzero" mask="url(#b)" d="M.001 15.006h15.318V.014H.001z"/></g><g transform="translate(1.613 19.003)"><mask id="d" fill="#fff"><use xlink:href="#c"/></mask><path fill="#34A853" fill-rule="nonzero" mask="url(#d)" d="M.084 12.956h24.819V.031H.084z"/></g><g transform="translate(0 8.784)"><mask id="f" fill="#fff"><use xlink:href="#e"/></mask><path fill="#FBBC04" fill-rule="nonzero" mask="url(#f)" d="M0 14.384h7.028V.052H0z"/></g><g transform="translate(1.613)"><mask id="h" fill="#fff"><use xlink:href="#g"/></mask><path fill="#EA4335" fill-rule="nonzero" mask="url(#h)" d="M.084 12.97h24.935V.046H.084z"/></g></g></svg>
